Papirus-Dark/24x24/actions/zoom-2-to-1.svg

<?xml version="1.0" encoding="UTF-8" standalone="no"?>
<!--Created with Inkscape (http://www.inkscape.org/)-->
<svg id="svg7384" xmlns:rdf="http://www.w3.org/1999/02/22-rdf-syntax-ns#" style="enable-background:new" xmlns="http://www.w3.org/2000/svg" height="24" width="24" version="1.1" xmlns:cc="http://creativecommons.org/ns#" xmlns:dc="http://purl.org/dc/elements/1.1/">
 <metadata id="metadata90">
  <rdf:RDF>
   <cc:Work rdf:about="">
    <dc:format>image/svg+xml</dc:format>
    <dc:type rdf:resource="http://purl.org/dc/dcmitype/StillImage"/>
   </cc:Work>
  </rdf:RDF>
 </metadata>
 <defs id="defs7386">
 </defs>
 <g id="layer12" transform="translate(-385 67.003)">
  <path id="path4245" opacity="1" fill="#d3dae3" style="fill:#d3dae3" transform="translate(385 -67.003)" d="m7.1875 6c-0.6627 0-1.1875 0.549-1.1875 1.2188v3.7812h2v-3h3v-2h-3.8125zm5.8125 0v2h3v3h2v-3.7812c0-0.6699-0.525-1.2188-1.188-1.2188h-3.812zm-4 3v6h2v-6h-2zm3 1v4l2-2-2-2zm2 2v2h1v-4h-1v2zm-8 1v3.781c0 0.67 0.5248 1.219 1.1875 1.219h3.8125v-2h-3v-3h-2zm10 0v3h-3v2h3.812c0.663 0 1.188-0.549 1.188-1.219v-3.781h-2z"/>
 </g>
</svg>

<?xml version="1.0" encoding="UTF-8" standalone="no"?>
<!--Created with Inkscape (http://www.inkscape.org/)-->
<svg xmlns:osb="http://www.openswatchbook.org/uri/2009/osb" xmlns:dc="http://purl.org/dc/elements/1.1/" xmlns:cc="http://creativecommons.org/ns#" xmlns:rdf="http://www.w3.org/1999/02/22-rdf-syntax-ns#" xmlns:svg="http://www.w3.org/2000/svg" xmlns="http://www.w3.org/2000/svg" xmlns:sodipodi="http://sodipodi.sourceforge.net/DTD/sodipodi-0.dtd" xmlns:inkscape="http://www.inkscape.org/namespaces/inkscape" sodipodi:docname="zoom-2-to-1.svg" inkscape:export-filename="/home/sam/source-symbolic.png" inkscape:export-xdpi="270" inkscape:export-ydpi="270" height="24" id="svg7384" style="enable-background:new" version="1.1" inkscape:version="0.91 r13725" width="24">
    <sodipodi:namedview inkscape:bbox-nodes="true" inkscape:bbox-paths="false" bordercolor="#666666" borderlayer="false" borderopacity="1" inkscape:current-layer="layer12" inkscape:cx="-6.9103426" inkscape:cy="9.2601253" gridtolerance="10" inkscape:guide-bbox="true" guidetolerance="10" id="namedview88" inkscape:object-nodes="true" inkscape:object-paths="true" objecttolerance="10" pagecolor="#f7f7f7" inkscape:pageopacity="0" inkscape:pageshadow="2" showborder="true" showgrid="false" showguides="true" inkscape:showpageshadow="false" inkscape:snap-bbox="true" inkscape:snap-bbox-edge-midpoints="false" inkscape:snap-bbox-midpoints="true" inkscape:snap-center="false" inkscape:snap-global="true" inkscape:snap-grids="true" inkscape:snap-intersection-paths="true" inkscape:snap-midpoints="true" inkscape:snap-nodes="true" inkscape:snap-object-midpoints="true" inkscape:snap-others="true" inkscape:snap-page="false" inkscape:snap-smooth-nodes="true" inkscape:snap-to-guides="true" inkscape:window-height="847" inkscape:window-maximized="1" inkscape:window-width="1600" inkscape:window-x="0" inkscape:window-y="30" inkscape:zoom="14.06">
        <inkscape:grid color="#ffffff" dotted="false" empcolor="#0800ff" empopacity="0.4627451" empspacing="4" enabled="true" id="grid4866" opacity="0.16470588" originx="-144.00038" originy="-276.00334" snapvisiblegridlinesonly="true" spacingx="0.25px" spacingy="0.25px" type="xygrid" visible="true"/>
    </sodipodi:namedview>
    <metadata id="metadata90">
        <rdf:RDF>
            <cc:Work rdf:about="">
                <dc:format>
                    image/svg+xml
                </dc:format>
                <dc:type rdf:resource="http://purl.org/dc/dcmitype/StillImage"/>
                <dc:title>
                    Paper Symbolic Icon Theme
                </dc:title>
            </cc:Work>
        </rdf:RDF>
    </metadata>
    <title id="title8473">
        Paper Symbolic Icon Theme
    </title>
    <defs id="defs7386">
        <linearGradient id="linearGradient5606" osb:paint="solid">
            <stop id="stop5608" offset="0" style="stop-color:#ffffff;stop-opacity:1;"/>
        </linearGradient>
        <style id="current-color-scheme" type="text/css">
            .ColorScheme-Text { color:#4d4d4d; } .ColorScheme-Background { color:#eff0f1; } .ColorScheme-Highlight { color:#3daee9; } .ColorScheme-ViewText { color:#31363b; } .ColorScheme-ViewBackground { color:#fcfcfc; } .ColorScheme-ViewHover { color:#93cee9; } .ColorScheme-ViewFocus{ color:#3daee9; } .ColorScheme-ButtonText { color:#31363b; } .ColorScheme-ButtonBackground { color:#eff0f1; } .ColorScheme-ButtonHover { color:#93cee9; } .ColorScheme-ButtonFocus{ color:#3daee9; }
        </style>
    </defs>
    <g inkscape:groupmode="layer" id="layer12" inkscape:label="actions" style="display:inline" transform="translate(-385.00058,67.00334)">
        <path style="color:#bebebe;opacity:0.72;fill:#ffffff;fill-opacity:1;stroke:none" d="M 7.1875 6 C 6.5248 6 6 6.54899 6 7.21875 L 6 11 L 8 11 L 8 8 L 11 8 L 11 6 L 7.1875 6 z M 13 6 L 13 8 L 16 8 L 16 11 L 18 11 L 18 7.21875 C 18 6.54894 17.4752 6 16.8125 6 L 13 6 z M 9 9 L 9 15 L 11 15 L 11 12 L 11 9 L 9 9 z M 12 10 L 12 14 L 14 12 L 12 10 z M 14 12 L 14 14 L 15 14 L 15 10 L 14 10 L 14 12 z M 6 13 L 6 16.78125 C 6 17.45106 6.5248 18 7.1875 18 L 11 18 L 11 16 L 8 16 L 8 13 L 6 13 z M 16 13 L 16 16 L 13 16 L 13 18 L 16.8125 18 C 17.4752 18 18 17.45101 18 16.78125 L 18 13 L 16 13 z " transform="translate(385.00058,-67.00334)" id="path4245"/>
    </g>
</svg>
